app/images/src/svg/mobile-arrow.svg

<svg width="12" height="9" viewBox="0 0 12 9" fill="none" xmlns="http://www.w3.org/2000/svg">
<path d="M8.08066 0.126897C7.91718 -0.0422992 7.64509 -0.0422992 7.4759 0.126897C7.31242 0.290378 7.31242 0.562464 7.4759 0.725564L10.5424 3.79206H0.423372C0.187488 3.79244 0 3.97993 0 4.21582C0 4.4517 0.187488 4.64528 0.423372 4.64528H10.5424L7.4759 7.70607C7.31242 7.87526 7.31242 8.14773 7.4759 8.31083C7.64509 8.48003 7.91756 8.48003 8.08066 8.31083L11.8731 4.51839C12.0423 4.35491 12.0423 4.08282 11.8731 3.91972L8.08066 0.126897Z" fill="#FF9701"/>
</svg>

<svg width="12" height="9" fill="none" xmlns="http://www.w3.org/2000/svg"><path d="M8.08.127a.424.424 0 0 0-.604 0 .427.427 0 0 0 0 .599l3.066 3.066H.423A.421.421 0 0 0 0 4.216c0 .236.187.43.423.43h10.12l-3.067 3.06a.434.434 0 0 0 0 .605c.17.169.442.169.605 0l3.792-3.793a.416.416 0 0 0 0-.598L8.081.127Z" fill="#FF9701"/></svg>
